X:1
T: Saw Ye My Wee Thing
C:
R:Jig
Q:180
K:A
M:6/8
L:1/16
|:E2|A6 c2B2A2|e2c2A2 f2g2a2|e2c2A2 A2G2A2|B2G2E2 E2F2G2|
A6 c2B2A2|e2c2A2 f2g2a2|g2f2e2 d2c2B2|A6A4:|
|:c2|B2G2E2 E2F2G2|A2B2c2 F2G2A2|F2G2A2 B2c2d2|F2B2A2 G2F2E2|
B2G2E2 E2F2G2|A2B2c2 F2G2A2|B2c2d2 e2f2g2|a6A4:|
